storage/app/icons/phosphoricons/duotone/text-h-four-duotone.svg

<svg xmlns="http://www.w3.org/2000/svg" fill="currentColor" viewBox="0 0 256 256"><path d="M248 72v120a16 16 0 0 1-16 16H56a16 16 0 0 1-16-16V56h192a16 16 0 0 1 16 16" opacity=".2"/><path d="M152 56v120a8 8 0 0 1-16 0v-52H48v52a8 8 0 0 1-16 0V56a8 8 0 0 1 16 0v52h88V56a8 8 0 0 1 16 0m104 128a8 8 0 0 1-8 8h-8v16a8 8 0 0 1-16 0v-16h-48a8 8 0 0 1-6.31-12.91l56-72A8 8 0 0 1 240 112v64h8a8 8 0 0 1 8 8m-32-48.68L192.36 176H224Z"/></svg>

<svg xmlns="http://www.w3.org/2000/svg" viewBox="0 0 256 256" fill="currentColor"><path d="M248,72V192a16,16,0,0,1-16,16H56a16,16,0,0,1-16-16V56H232A16,16,0,0,1,248,72Z" opacity="0.2"/><path d="M152,56V176a8,8,0,0,1-16,0V124H48v52a8,8,0,0,1-16,0V56a8,8,0,0,1,16,0v52h88V56a8,8,0,0,1,16,0ZM256,184a8,8,0,0,1-8,8h-8v16a8,8,0,0,1-16,0V192H176a8,8,0,0,1-6.31-12.91l56-72A8,8,0,0,1,240,112v64h8A8,8,0,0,1,256,184Zm-32-48.68L192.36,176H224Z"/></svg>
